!!!COM: Ockeghem, Johannes
!!!CDT: ~1425-1497/02/06
!!!OTL: Qu'es mi vida
!!!AGN: Song; Chanson
!!!SCT: Ock3018
!!!SCA: Ock3018
!!!voices: 4
**kern	**text	**text	**kern	**text	**text	**kern	**text	**text	**kern	**text	**text
*staff4	*staff4	*staff4	*staff3	*staff3	*staff3	*staff2	*staff2	*staff2	*staff1	*staff1	*staff1
*Ivox	*	*	*Ivox	*	*	*Ivox	*	*	*Ivox	*	*
*I"Contrabassus	*	*	*I"Tenor	*	*	*I"Contra	*	*	*I"Discantus	*	*
*I'C	*	*	*I'T	*	*	*I'C	*	*	*I'D	*	*
*>[A,B]	*>[A,B]	*>[A,B]	*>[A,B]	*>[A,B]	*>[A,B]	*>[A,B]	*>[A,B]	*>[A,B]	*>[A,B]	*>[A,B]	*>[A,B]
*>A	*>A	*>A	*>A	*>A	*>A	*>A	*>A	*>A	*>A	*>A	*>A
*clefF4	*	*	*clefF4	*	*	*clefGv2	*	*	*clefG2	*	*
*k[]	*	*	*k[]	*	*	*k[]	*	*	*k[]	*	*
*M3/1	*	*	*M3/1	*	*	*M3/1	*	*	*M3/1	*	*
*met(O)	*	*	*met(O)	*	*	*met(O)	*	*	*met(O)	*	*
=1-	=1-	=1-	=1-	=1-	=1-	=1-	=1-	=1-	=1-	=1-	=1-
!!LO:TX:Z=8:t=D and T by Cornago
!!LO:TX:Z=36:t=Form&colon; canción (abba)
1r	.	.	0.r	.	.	1r	.	.	0.r	.	.
1r	.	.	.	.	.	1r	.	.	.	.	.
!!!ONB: Questions start with inverted question mark
1DD	Qu'es	Pa-	.	.	.	1D	Qu'es	Pa-	.	.	.
=2	=2	=2	=2	=2	=2	=2	=2	=2	=2	=2	=2
2GG	mi	-ra	1r	.	.	1.D	mi	-ra	0.r	.	.
2FF	.	.	.	.	.	.	.	.	.	.	.
2GG	vi-	.	1r	.	.	.	.	.	.	.	.
2AA	.	.	.	.	.	2C	.	.	.	.	.
[1DD	-da,	que	1D	Qu'es	Pa-	2.D	vi-	que	.	.	.
.	.	.	.	.	.	4C	.	.	.	.	.
=3	=3	=3	=3	=3	=3	=3	=3	=3	=3	=3	=3
1DD]	.	.	2.F	mi	-ra	2.AA	.	.	0.r	.	.
.	.	.	4G	.	.	4BB	.	.	.	.	.
2r	.	.	2A	vi-	que	2C	.	.	.	.	.
2DD	vi-	Pa-	4G	.	.	1D	.	.	.	.	.
.	.	.	4F	.	.	.	.	.	.	.	.
1AA	.	-ra	1E	.	.	.	.	.	.	.	.
.	.	.	.	.	.	2C	.	.	.	.	.
=4	=4	=4	=4	=4	=4	=4	=4	=4	=4	=4	=4
0.DD	-da,	que,	0D	-da,	.	0F	-da,	.	1r	.	.
.	.	.	.	.	.	.	.	.	1r	.	.
.	.	.	1F	Qu'es	Pa-	1A	Qu'es	Pa-	1a	Qu'es	Pa-
=5	=5	=5	=5	=5	=5	=5	=5	=5	=5	=5	=5
1r	.	.	1.F	mi	-ra	1.c	mi	-ra	1.a	mi	-ra
1r	.	.	.	.	.	.	.	.	.	.	.
.	.	.	2E	.	.	2G	.	.	2g	.	.
1D	vi-	que	2.F	vi-	que	2A	vi-	que	2f	vi-	que
.	.	.	.	.	.	2B	.	.	4e	.	.
.	.	.	4E	.	.	.	.	.	4d	.	.
=6	=6	=6	=6	=6	=6	=6	=6	=6	=6	=6	=6
2r	.	.	1C	-da,	me	1A	-da,	me	2e	.	.
2AA	-da,	me	.	.	.	.	.	.	4d	-da,	me
.	.	.	.	.	.	.	.	.	4e	.	.
1D	pre-	pre-	2D	pre-	pre-	1A	pre-	pre-	2f	pre-	pre-
.	.	.	2F	.	.	.	.	.	1d	-gun-	-gun-
1AA	-gun-	-gun-	1E	-gun-	-gun-	1A	-gun-	-gun-	.	.	.
.	.	.	.	.	.	.	.	.	2c#i	.	.
=7	=7	=7	=7	=7	=7	=7	=7	=7	=7	=7	=7
2FF	-tays?	-tays	0.D	-tays?	-tays	2A	-tays?	-tays	1d	-tays?	-tays
2GG	.	.	.	.	.	1G	.	.	.	.	.
2.BB-	.	.	.	.	.	.	.	.	1r	.	.
.	.	.	.	.	.	2A	.	.	.	.	.
4C	.	.	.	.	.	.	.	.	.	.	.
1D	Non	La	.	.	.	1B	Non	La	1f	Non	La
=8	=8	=8	=8	=8	=8	=8	=8	=8	=8	=8	=8
1.C	vos	pe-	1G	Non	La	1.c	vos	pe-	1e	vos	pe-
.	.	.	1.G	vos	pe-	.	.	.	0g	la	-na
2BB	.	.	.	.	.	2d	la	-na	.	.	.
1GG	la	-na	.	.	.	[1B	quie-	que he,	.	.	.
.	.	.	2G	la	-na	.	.	.	.	.	.
=9	=9	=9	=9	=9	=9	=9	=9	=9	=9	=9	=9
2r	.	.	1.G	quie-	que he	2B]	.	.	1.e	quie-	que he
1C	quie-	que he	.	.	.	1c	.	.	.	.	.
1C	-ro	de	2G	-ro	de	2G	.	.	2e	-ro	de
.	.	.	1G	ne-	pas-	1c	-ro,	.	1e	ne-	pas-
2C	ne-	pas-	.	.	.	.	.	.	.	.	.
=10	=10	=10	=10	=10	=10	=10	=10	=10	=10	=10	=10
0FF	-gar:	-sar,	[0.F	-gar:	-sar,	2r	.	.	0.A	-gar:	-sar,
.	.	.	.	.	.	1C	quie-	que he	.	.	.
.	.	.	.	.	.	2C	-ro	de	.	.	.
2.FF	Bien	Pues	.	.	.	1C	ne-	pas-	.	.	.
4GG	.	.	.	.	.	.	.	.	.	.	.
=11	=11	=11	=11	=11	=11	=11	=11	=11	=11	=11	=11
2AA	a-	a-	0.F]	.	.	2C	-gar:	-sar,	1r	.	.
1BB-i	-mar,	-mar,	.	.	.	1D	.	.	.	.	.
.	.	.	.	.	.	.	.	.	1r	.	.
2GG	.	.	.	.	.	2BB-	.	.	.	.	.
1FF	.	.	.	.	.	2.F	Bien	Pues	2a	Bien	Pues
.	.	.	.	.	.	.	.	.	2a	a-	a-
.	.	.	.	.	.	4E	.	.	.	.	.
=12	=12	=12	=12	=12	=12	=12	=12	=12	=12	=12	=12
1FF	.	.	1r	.	.	1C	a-	a-	1a	-mar	-mar
0C	.	.	1r	.	.	0E	-mar	-mar	0g	.	.
.	.	.	1G	Bien	Pues	.	.	.	.	.	.
=13	=13	=13	=13	=13	=13	=13	=13	=13	=13	=13	=13
1r	.	.	2.A	a-	a-	1D	.	.	2.f	.	.
.	.	.	4B	.	.	.	.	.	4d	.	.
2.C	a-	a-	1c	-mar	-mar	2.G	.	.	2.e	.	.
4BB	.	.	.	.	.	4C	.	.	4f	.	.
2GG	-mar,	-mar,	2B	.	.	2E	.	.	2g	.	.
2FF	.	.	2c	.	.	[2F	.	.	[2a	.	.
=14	=14	=14	=14	=14	=14	=14	=14	=14	=14	=14	=14
2r	.	.	1d	.	.	1F]	.	.	4a]	.	.
.	.	.	.	.	.	.	.	.	4g	.	.
2DD	a-	a-	.	.	.	.	.	.	4f	.	.
.	.	.	.	.	.	.	.	.	4e	.	.
1GG	-mar	-mar	1B	.	.	2.G	.	.	1d	.	.
.	.	.	.	.	.	4E	.	.	.	.	.
1AA	.	.	[1A	.	.	1E	.	.	1c	.	.
=15	=15	=15	=15	=15	=15	=15	=15	=15	=15	=15	=15
1D	e	e	1A]	.	.	1F	.	.	2r	.	.
.	.	.	.	.	.	.	.	.	2f	e	e
1C	la-	la-	1c	e	e	1.G	.	.	2e	la-	la-
.	.	.	.	.	.	.	.	.	1g	-men-	-men-
2E	-men-	-men-	2B	la-	la-	.	.	.	.	.	.
[2F	-tar,	-tar,	2A	.	.	2F	.	.	[2a	-tar	-tar
=16	=16	=16	=16	=16	=16	=16	=16	=16	=16	=16	=16
2F]	.	.	1d	.	.	1D	.	.	2a]	.	.
2BB-i	.	.	.	.	.	.	.	.	2b-	.	.
1F	.	.	2c	.	.	2r	.	.	4a	.	.
.	.	.	.	.	.	.	.	.	4g	.	.
.	.	.	2A	.	.	2F	e	e	2.f	.	.
2C	.	.	1G	-men-	-men-	2G	la-	la-	.	.	.
.	.	.	.	.	.	.	.	.	4e	.	.
2r	.	.	.	.	.	2B-i	-men-	-men-	4e	.	.
.	.	.	.	.	.	.	.	.	4d	.	.
=17	=17	=17	=17	=17	=17	=17	=17	=17	=17	=17	=17
0FF	la-	la-	0F	-tar	-tar	0A	-tar	-tar	1.f	.	.
.	.	.	.	.	.	.	.	.	2e	.	.
1GG	-men-	-men-	1B-	.	.	2r	.	.	1d	.	.
.	.	.	.	.	.	2G	Es	Es	.	.	.
=18	=18	=18	=18	=18	=18	=18	=18	=18	=18	=18	=18
2.AA	-tar	-tar	0.A	.	.	1E	.	.	1c	.	.
4BB	.	.	.	.	.	.	.	.	.	.	.
2C	.	.	.	.	.	2E	la	la	1r	.	.
1D	.	.	.	.	.	1F	vi-	vi-	.	.	.
.	.	.	.	.	.	.	.	.	1f	Es	Es
2AA	Es	Es	.	.	.	2C	.	.	.	.	.
=19	=19	=19	=19	=19	=19	=19	=19	=19	=19	=19	=19
1BB-	la	la	1r	.	.	1D	.	.	1g	la	la
1AA	vi-	vi-	1r	.	.	1E	.	.	1.a	vi-	vi-
2FF	.	.	2A	Es	Es	2F	.	.	.	.	.
2GG	.	.	2B	la	la	2D	.	.	2g	.	.
=20	=20	=20	=20	=20	=20	=20	=20	=20	=20	=20	=20
2AA	.	.	1.c	vi-	vi-	1C	.	.	2.e	.	.
1C	.	.	.	.	.	.	.	.	.	.	.
.	.	.	.	.	.	.	.	.	4f	.	.
.	.	.	.	.	.	2E	.	.	1.g	.	.
2GG	.	.	2B	.	.	1D	.	.	.	.	.
2BB-i	.	.	2G	.	.	.	.	.	.	.	.
2AA	.	.	[2A	.	.	[2A	.	.	[2f	.	.
=21	=21	=21	=21	=21	=21	=21	=21	=21	=21	=21	=21
2D	.	.	4A]	.	.	4A]	.	.	4f]	.	.
.	.	.	4F	.	.	4B	.	.	4d	.	.
1C	.	.	1G	.	.	1c	.	.	2.e	.	.
.	.	.	.	.	.	.	.	.	4d	.	.
2BB-i	.	.	2D	.	.	2G	.	.	1d	.	.
1AA	-da	-da	1E	.	.	1A	.	.	.	.	.
.	.	.	.	.	.	.	.	.	2c#i	.	.
=22	=22	=22	=22	=22	=22	=22	=22	=22	=22	=22	=22
2r	.	.	2D	-da	-da	2F	-da	-da	1d	-da	-da
1BB-i	que	que	2F	.	.	1D	.	.	.	.	.
.	.	.	2G	.	.	.	.	.	2r	.	.
2AA	me	me	2A	que	que	2C	que	que	2f	que	que
2GG	dais,	dais,	2B	me	me	2E	.	.	2g	me	.
2FF	.	.	[2c	dais.	dais?	2F	.	.	[2a	dais.	.
=23	=23	=23	=23	=23	=23	=23	=23	=23	=23	=23	=23
1C	.	.	2c]	.	.	1E	me	me	4a]	.	.
.	.	.	.	.	.	.	.	.	4g	.	.
.	.	.	2.A	.	.	.	.	.	1cc	.	.
2r	.	.	.	.	.	2F	dais.	dais?	.	.	.
.	.	.	4F	.	.	.	.	.	.	.	.
2GG	me	me	2G	.	.	1.D	.	.	2b	.	.
2D	dais.	dais.	2.F	.	.	.	.	.	2.a	.	.
2BB-i	.	.	.	.	.	.	.	.	.	.	.
.	.	.	4G	.	.	.	.	.	4g	.	.
=24	=24	=24	=24	=24	=24	=24	=24	=24	=24	=24	=24
2AA	.	.	2A	.	.	2C	.	.	2f	.	.
1C	.	.	1G	.	.	1E	.	.	4e	.	.
.	.	.	.	.	.	.	.	.	2g	.	.
.	.	.	.	.	.	.	.	.	4f	.	.
2FF	.	.	2F	.	.	2AA	.	.	2d	.	.
2GG	.	.	1E	.	.	2BB	.	.	2e	.	.
2AA	.	.	.	.	.	2C	.	.	4c#i	.	.
.	.	.	.	.	.	.	.	.	4B	.	.
=25	=25	=25	=25	=25	=25	=25	=25	=25	=25	=25	=25
0.DDl	.	.	0.Dl	.	.	0.AAl	.	.	0.dl	.	.
!!LO:LB:i:g=z
=26||	=26||	=26||	=26||	=26||	=26||	=26||	=26||	=26||	=26||	=26||	=26||
*>B	*>B	*>B	*>B	*>B	*>B	*>B	*>B	*>B	*>B	*>B	*>B
*clefF4	*	*	*clefF4	*	*	*clefGv2	*	*	*clefG2	*	*
*k[]	*	*	*k[]	*	*	*k[]	*	*	*k[]	*	*
*M3/1	*	*	*M3/1	*	*	*M3/1	*	*	*M3/1	*	*
*met(O)	*	*	*met(O)	*	*	*met(O)	*	*	*met(O)	*	*
1r	.	.	0.r	.	.	1r	.	.	0.r	.	.
1r	.	.	.	.	.	1r	.	.	.	.	.
1D	Quien	Mi	.	.	.	1F	Quien	Mi	.	.	.
=27	=27	=27	=27	=27	=27	=27	=27	=27	=27	=27	=27
1C	vos	tra-	1r	.	.	2G	vos	tra-	0.r	.	.
.	.	.	.	.	.	1E	.	.	.	.	.
1AA	.	.	1r	.	.	.	.	.	.	.	.
.	.	.	.	.	.	2.A	.	.	.	.	.
1BB	pu-	-ba-	1d	Quien	Mi	.	.	.	.	.	.
.	.	.	.	.	.	4F#i	.	.	.	.	.
.	.	.	.	.	.	2G#i	.	.	.	.	.
=28	=28	=28	=28	=28	=28	=28	=28	=28	=28	=28	=28
0AA	-die-	-ja-	1c	vos	tra-	1A	.	.	1r	.	.
.	.	.	1A	pu-	-ba-	2E	pu-	-ba-	1r	.	.
.	.	.	.	.	.	2F	.	.	.	.	.
1GG	.	.	1B	-die-	-ja-	1G	-die-	-ja-	1d	Quien	Mi
=29	=29	=29	=29	=29	=29	=29	=29	=29	=29	=29	=29
1AA	-ra	-do	0A	.	.	1E	.	.	1c	vos	tra-
1r	.	.	.	.	.	1F	.	.	1A	.	.
1r	.	.	1G	.	.	1E	.	.	1B	pu-	-ba-
=30	=30	=30	=30	=30	=30	=30	=30	=30	=30	=30	=30
0AA	ser-	be-	1.c	.	.	0.E	-ra	-do	0A	-die-	-ja-
.	.	.	2A	.	.	.	.	.	.	.	.
1EE	.	.	1B	-ra	-do	.	.	.	1G	-ra	-do
=31	=31	=31	=31	=31	=31	=31	=31	=31	=31	=31	=31
1AA	-vir	-vir	1A	ser-	be-	1E	ser-	be-	1c	ser-	be-
2BB	.	.	2d	-vir	-vir	2D	-vir	-vir	2B	-vir	-vir
1C	.	.	2c	.	.	1E	.	.	1A	.	.
.	.	.	1A	.	.	.	.	.	.	.	.
2FF	.	.	.	.	.	2F	.	.	2c	.	.
=32	=32	=32	=32	=32	=32	=32	=32	=32	=32	=32	=32
1BB-	.	.	1F	.	.	1D	.	.	2d	.	.
.	.	.	.	.	.	.	.	.	1f	.	.
2AA	.	.	2A	.	.	1C	.	.	.	.	.
2.C	.	.	1G	.	.	.	.	.	2e	.	.
.	.	.	.	.	.	2E	.	.	1g	.	.
4BB-	.	.	.	.	.	.	.	.	.	.	.
2GG	.	.	2B-i	.	.	2D	.	.	.	.	.
=33	=33	=33	=33	=33	=33	=33	=33	=33	=33	=33	=33
2AA	.	.	2A	.	.	1C	.	.	2f	.	.
2C	.	.	2G	.	.	.	.	.	2.e	.	.
1D	.	.	2F	.	.	2r	.	.	.	.	.
.	.	.	.	.	.	.	.	.	4d	.	.
.	.	.	2D	.	.	2F	.	.	1d	.	.
1AA	.	.	1E	.	.	1A	.	.	.	.	.
.	.	.	.	.	.	.	.	.	2c#i	.	.
=34	=34	=34	=34	=34	=34	=34	=34	=34	=34	=34	=34
0DD	.	.	0.D	.	.	0A	.	.	0.d	.	.
[1D	Tam-	Quien	.	.	.	2A	Tam-	Quien	.	.	.
.	.	.	.	.	.	[2B-i	.	.	.	.	.
=35	=35	=35	=35	=35	=35	=35	=35	=35	=35	=35	=35
1D]	.	.	1d	Tam-	Quien	2B-]	.	.	1r	.	.
.	.	.	.	.	.	2A	.	pu-	.	.	.
2BB-	-bien	pu-	0d	-bien	pu-	1B-i	-bien	-die-	1r	.	.
2C	.	.	.	.	.	.	.	.	.	.	.
1D	.	.	.	.	.	[1A	.	-ra	1f	Tam-	Quien
=36	=36	=36	=36	=36	=36	=36	=36	=36	=36	=36	=36
1AA	co-	.	1c	co-	-die-	1A]	.	.	1e	-bien	pu-
0EE	-mo	-ra a-	1B	.	.	2r	.	.	2g	co-	-die-
.	.	.	.	.	.	1G	co-	a-	2g	-mo	-ra a-
.	.	.	1B	-mo	-ra a-	.	.	.	2g	yo he	-ver
.	.	.	.	.	.	2E	-mo	.	2g	ser-	so-
=37	=37	=37	=37	=37	=37	=37	=37	=37	=37	=37	=37
1FF	yo he	-ver	1A	yo he	-ver	1C	yo he	-ver	2.a	-vi-	-fri-
.	.	.	.	.	.	.	.	.	4g	.	.
1DD	.	.	1r	.	.	1D	.	.	2f	.	.
.	.	.	.	.	.	.	.	.	2d	.	.
2r	.	.	1c#i	ser-	so-	1AA	.	.	1e	.	.
2AA	ser-	so-	.	.	.	.	.	.	.	.	.
=38	=38	=38	=38	=38	=38	=38	=38	=38	=38	=38	=38
0DD	-vi-	-fri-	0d	-vi-	-fri-	2r	.	.	1d	-do,	-do,
.	.	.	.	.	.	2A	ser-	so-	.	.	.
.	.	.	.	.	.	1A	-vi-	-fri-	2r	.	.
.	.	.	.	.	.	.	.	.	2f	ser-	so-
2EE	.	.	2B	.	.	2G	.	.	2g	-vi-	-fri-
[2FF	.	.	2A	.	.	[2F	.	.	[2a	.	.
=39	=39	=39	=39	=39	=39	=39	=39	=39	=39	=39	=39
4FF]	.	.	1c	.	.	4F]	.	.	4a]	.	.
4GG	.	.	.	.	.	4D	.	.	4b	.	.
2AA	.	.	.	.	.	2C	.	.	2cc	.	.
1GG	-do,	-do,	2G	.	.	2E	.	.	2b	.	.
.	.	.	2B	.	.	2G	.	.	1g	.	.
2r	.	.	1A	.	.	1D	.	.	.	.	.
2DD	ser-	so-	.	.	.	.	.	.	2f#i	.	.
=40	=40	=40	=40	=40	=40	=40	=40	=40	=40	=40	=40
1GG	-vi-	-fri-	1G	.	.	1D	-do,	-do,	1.g	.	.
1FF	.	.	0c	.	.	1F	ser-	so-	.	.	.
.	.	.	.	.	.	.	.	.	2a	.	.
2EE	.	.	.	.	.	2G	-vi-	-fri-	2g	.	.
[2FF	.	.	.	.	.	2F	.	.	[2cc	.	.
=41	=41	=41	=41	=41	=41	=41	=41	=41	=41	=41	=41
2FF]	.	.	2A	.	.	2A	.	.	4cc]	.	.
.	.	.	.	.	.	.	.	.	4a	.	.
2GG	.	.	2G	.	.	2D	.	.	2b	.	.
2FF	.	.	2A	.	.	2r	.	.	2cc	.	.
2AA	.	.	2c	.	.	1E	.	.	1a	.	.
1EE	.	.	1B	.	.	.	.	.	.	.	.
.	.	.	.	.	.	2E	.	.	2g#i	.	.
=42	=42	=42	=42	=42	=42	=42	=42	=42	=42	=42	=42
1FF	.	.	1A	.	.	1C	.	.	1.a	.	.
0DD	.	.	1.d	.	.	1D	.	.	.	.	.
.	.	.	.	.	.	.	.	.	2g	.	.
.	.	.	.	.	.	[1AA	.	.	2f	.	.
.	.	.	2c	.	.	.	.	.	4e	.	.
.	.	.	.	.	.	.	.	.	4d	.	.
=43	=43	=43	=43	=43	=43	=43	=43	=43	=43	=43	=43
1.FF	-do,	-do,	1.A	-do,	-do,	2AA]	.	.	1c	-do,	-do,
.	.	.	.	.	.	1C	.	.	.	.	.
.	.	.	.	.	.	.	.	.	2f	ser-	so-
2EE	ser-	so-	2G	ser-	so-	2E	.	.	2g	.	.
2FF	-vi-	-fri-	2F	-vi-	-fri-	2AA	.	-do,	2a	-vi-	-fri-
2GG	.	.	4E	.	.	2r	.	.	4g	.	.
.	.	.	4D	.	.	.	.	.	4f	.	.
=44	=44	=44	=44	=44	=44	=44	=44	=44	=44	=44	=44
2AAN	-do?	.	2CN	-do?	.	1AN	-do?	so-	2eN	-do?	.
1DD	.	.	1D	.	.	.	.	.	2.f	.	.
.	.	.	.	.	.	2AA	.	-fri-	.	.	.
.	.	.	.	.	.	.	.	.	4e	.	.
2DD	.	.	2F	.	.	2D	.	.	4d	.	.
.	.	.	.	.	.	.	.	.	8cL	.	.
.	.	.	.	.	.	.	.	.	8dJ	.	.
1AA	.	.	1E	.	.	2C	.	.	2e	.	.
.	.	.	.	.	.	2AA	.	.	4c#i	.	.
.	.	.	.	.	.	.	.	.	4B	.	.
=45	=45	=45	=45	=45	=45	=45	=45	=45	=45	=45	=45
0.DDl	.	-do?	0.Dl	.	-do?	1BB-i	.	.	0.dl	.	-do?
.	.	.	.	.	.	0AAl	.	-do?	.	.	.
==	==	==	==	==	==	==	==	==	==	==	==
*-	*-	*-	*-	*-	*-	*-	*-	*-	*-	*-	*-
!!!RDF**kern: l = long note in original notation
!!!RDF**kern: i = editorial accidental
!!!RDF**kern: V = start of tuplet marker
!!!RDF**kern: Z = end of tuplet marker
!!!RDF**kern: N = signum congruentiae
!!!ENC: Jesse Rodin 17 April 2018
!!!END: 2018/04/17/
!!!EED: Jesse Rodin
!!!EEV: 2018/07/23/
!!!ONB: Translated from MusicXML and edited on 2018/07/23/ by Craig Sapp
!!muse2ps: C^@{COM}\nEd. @{EED}^i2I150v75,75,75,120Q16z18l2650t120c80
